src/resources/flags/mu.svg

<svg height="336" viewBox="0 0 512 336" width="512" xmlns="http://www.w3.org/2000/svg"><g fill="none"><path d="m512.001 84.138h-512.001v-75.035a8.829 8.829 0 0 1 8.828-8.828h494.345a8.829 8.829 0 0 1 8.828 8.828z" fill="#ff4b55"/><path d="m0 84.138h512v83.862h-512z" fill="#41479b"/><path d="m0 168h512v83.862h-512z" fill="#ffe15a"/><path d="m503.172 335.724h-494.344a8.829 8.829 0 0 1 -8.828-8.828v-75.034h512v75.034a8.828 8.828 0 0 1 -8.828 8.828z" fill="#73af00"/></g></svg>

<svg width="512" height="336" viewBox="0 0 512 336" xmlns="http://www.w3.org/2000/svg">
  <g fill="none">
    <path d="M512.001 84.138H0V9.103A8.829 8.829 0 0 1 8.828.275h494.345a8.829 8.829 0 0 1 8.828 8.828v75.035z" fill="#FF4B55"/>
    <path fill="#41479B" d="M0 84.138h512V168H0z"/>
    <path fill="#FFE15A" d="M0 168h512v83.862H0z"/>
    <path d="M503.172 335.724H8.828A8.829 8.829 0 0 1 0 326.896v-75.034h512v75.034a8.828 8.828 0 0 1-8.828 8.828z" fill="#73AF00"/>
  </g>
</svg>
